X: 148116
Q: "Slow."
M: 6/8
L: 1/8
K: D
|:\
|:\
e>fe a>fe | f>ef f>ed | e>fe a>fd | e>fe Te2ud |\
e>fe a>fe | f>ef f>ed | a>fe f>ed | A>ee Te2ud :|


